X:2
T:Chevy Chase 2
T:In Peascod Time
Z:Jack Campin, http://www.campin.me.uk/
S:Northumbrian Minstrelsy
M:6/8
L:1/8
K:G
D|G2A B2 G|B2A G2                    \
                 B| c2B  A2^G|A3- A2
A|c2c d2 c|B2A G2                    \
                 B|(BAG) G2 F|G3- G2|]

